; G-Code generated by Simplify3D(R) Version 3.1.0
; Sep 22, 2016 at 1:01:09 AM
; Settings Summary
;   processName,Process1
;   applyToModels,DrivewayLights_v1
;   profileName,MakerBot Replicator 2 (modified)
;   profileVersion,2015-05-01 08:00:00
;   baseProfile,
;   printMaterial,PLA
;   printQuality,Medium
;   printExtruders,
;   extruderName,Primary Extruder
;   extruderToolheadNumber,0
;   extruderDiameter,0.4
;   extruderAutoWidth,0
;   extruderWidth,0.4
;   extrusionMultiplier,0.9
;   extruderUseRetract,1
;   extruderRetractionDistance,1
;   extruderExtraRestartDistance,0
;   extruderRetractionZLift,0
;   extruderRetractionSpeed,1200
;   extruderUseCoasting,0
;   extruderCoastingDistance,0.2
;   extruderUseWipe,0
;   extruderWipeDistance,5
;   primaryExtruder,0
;   layerHeight,0.2
;   topSolidLayers,3
;   bottomSolidLayers,3
;   perimeterOutlines,2
;   printPerimetersInsideOut,1
;   startPointOption,2
;   startPointOriginX,0
;   startPointOriginY,0
;   startPointOriginZ,300
;   sequentialIslands,0
;   spiralVaseMode,0
;   firstLayerHeightPercentage,90
;   firstLayerWidthPercentage,100
;   firstLayerUnderspeed,0.5
;   useRaft,0
;   raftExtruder,0
;   raftLayers,3
;   raftOffset,3
;   raftSeparationDistance,0.14
;   raftInfill,85
;   disableRaftBaseLayers,0
;   useSkirt,1
;   skirtExtruder,0
;   skirtLayers,1
;   skirtOutlines,2
;   skirtOffset,4
;   usePrimePillar,0
;   primePillarExtruder,999
;   primePillarWidth,12
;   primePillarLocation,7
;   primePillarSpeedMultiplier,1
;   useOozeShield,0
;   oozeShieldExtruder,999
;   oozeShieldOffset,2
;   oozeShieldOutlines,1
;   oozeShieldSidewallShape,1
;   oozeShieldSidewallAngle,30
;   oozeShieldSpeedMultiplier,1
;   infillExtruder,0
;   internalInfillPattern,Fast Honeycomb
;   externalInfillPattern,Rectilinear
;   infillPercentage,20
;   outlineOverlapPercentage,20
;   infillExtrusionWidthPercentage,100
;   minInfillLength,5
;   infillLayerInterval,1
;   infillAngles,0
;   overlapInfillAngles,0
;   generateSupport,0
;   supportExtruder,0
;   supportInfillPercentage,30
;   supportExtraInflation,0
;   denseSupportLayers,0
;   denseSupportInfillPercentage,70
;   supportLayerInterval,1
;   supportHorizontalPartOffset,0.3
;   supportUpperSeparationLayers,1
;   supportLowerSeparationLayers,1
;   supportType,0
;   supportGridSpacing,4
;   maxOverhangAngle,45
;   supportAngles,0
;   temperatureName,Primary Extruder
;   temperatureNumber,0
;   temperatureSetpointCount,1
;   temperatureSetpointLayers,1
;   temperatureSetpointTemperatures,230
;   temperatureStabilizeAtStartup,0
;   temperatureHeatedBed,0
;   temperatureRelayBetweenLayers,0
;   temperatureRelayBetweenLoops,0
;   fanLayers,1,2
;   fanSpeeds,0,100
;   blipFanToFullPower,0
;   adjustSpeedForCooling,1
;   minSpeedLayerTime,15
;   minCoolingSpeedSlowdown,20
;   increaseFanForCooling,0
;   minFanLayerTime,45
;   maxCoolingFanSpeed,100
;   increaseFanForBridging,0
;   bridgingFanSpeed,100
;   use5D,1
;   relativeEdistances,1
;   allowEaxisZeroing,0
;   independentExtruderAxes,1
;   includeM10123,0
;   stickySupport,1
;   applyToolheadOffsets,0
;   gcodeXoffset,0
;   gcodeYoffset,0
;   gcodeZoffset,0
;   overrideMachineDefinition,1
;   machineTypeOverride,0
;   strokeXoverride,280
;   strokeYoverride,150
;   strokeZoverride,150
;   originOffsetXoverride,140
;   originOffsetYoverride,75
;   originOffsetZoverride,0
;   homeXdirOverride,1
;   homeYdirOverride,1
;   homeZdirOverride,-1
;   flipXoverride,1
;   flipYoverride,-1
;   flipZoverride,1
;   toolheadOffsets,0,0|0,0|0,0|0,0|0,0|0,0
;   overrideFirmwareConfiguration,1
;   firmwareTypeOverride,MakerBot/Sailfish Firmware
;   GPXconfigOverride,r2
;   baudRateOverride,115200
;   overridePrinterModels,1
;   printerModelsOverride,MakerBot_Replicator2.stl
;   startingGcode,; **** Replicator 2 start.gcode ****,M73 P0 ; enable build progress,G162 X Y F3000 ; home XY maximum,G161 Z F1200 ; home Z minimum,G92 Z-5 ; set Z to -5,G1 Z0 ; move Z to 0,G161 Z F100 ; home Z slowly,M132 X Y Z A B ; recall home offsets,G1 X-145 Y-75 Z30 F9000 ; move to wait position off table,G130 X20 Y20 Z20 A20 B20 ; lower stepper Vrefs while heating,M126 S[fan_speed_pwm],M104 S[extruder0_temperature] T0,M133 T0 ; stabilize extruder temperature,G130 X127 Y127 Z40 A127 B127 ; default stepper Vrefs,G92 A0 ; zero extruder,G1 Z0.4 ; position nozzle,G1 E25 F300 ; purge nozzle,G1 X-140 Y-70 Z0.15 F1200 ; slow wipe,G1 X-135 Y-65 Z0.5 F1200 ; lift,G92 A0 ; zero extruder,M73 P1 ;@body (notify GPX body has started),; **** end of start.gcode ****
;   layerChangeGcode,
;   retractionGcode,
;   toolChangeGcode,
;   endingGcode,; **** Replicator 2 end.gcode ****,M73 P100 ; end build progress,G1 Z155 F1000 ; send Z axis to bottom of machine,M104 S0 T0 ; cool down extruder,M127 ; stop blower fan,G162 X Y F3000 ; home XY maximum,M18 ; disable stepper,M72 P1 ; play Ta-Da song,; **** end of end.gcode ****
;   exportFileFormat,x3g
;   celebration,0
;   celebrationSong,Random Song
;   postProcessing,
;   defaultSpeed,4800
;   outlineUnderspeed,0.5
;   solidInfillUnderspeed,0.8
;   supportUnderspeed,0.8
;   rapidXYspeed,9000
;   rapidZspeed,1200
;   minBridgingArea,50
;   bridgingExtraInflation,0
;   bridgingExtrusionMultiplier,1
;   bridgingSpeedMultiplier,0.8
;   filamentDiameter,1.75
;   filamentPricePerKg,46
;   filamentDensity,1.25
;   useMinPrintHeight,0
;   minPrintHeight,0
;   useMaxPrintHeight,0
;   maxPrintHeight,0
;   useDiaphragm,0
;   diaphragmLayerInterval,20
;   robustSlicing,1
;   mergeAllIntoSolid,0
;   onlyRetractWhenCrossingOutline,1
;   retractBetweenLayers,1
;   useRetractionMinTravel,0
;   retractionMinTravel,3
;   retractWhileWiping,0
;   onlyWipeOutlines,1
;   avoidCrossingOutline,0
;   maxMovementDetourFactor,3
;   toolChangeRetractionDistance,12
;   toolChangeExtraRestartDistance,-0.5
;   toolChangeRetractionSpeed,600
;   allowThinWallGapFill,1
;   thinWallAllowedOverlapPercentage,10
;   horizontalSizeCompensation,0
G90
M83
; **** Replicator 2 start.gcode ****
M73 P0 ; enable build progress
G162 X Y F3000 ; home XY maximum
G161 Z F1200 ; home Z minimum
G92 Z-5 ; set Z to -5
G1 Z0 ; move Z to 0
G161 Z F100 ; home Z slowly
M132 X Y Z A B ; recall home offsets
G1 X-145 Y-75 Z30 F9000 ; move to wait position off table
G130 X20 Y20 Z20 A20 B20 ; lower stepper Vrefs while heating
M127
M104 S230 T0
M133 T0 ; stabilize extruder temperature
G130 X127 Y127 Z40 A127 B127 ; default stepper Vrefs
G92 A0 ; zero extruder
G1 Z0.4 ; position nozzle
G1 E25 F300 ; purge nozzle
G1 X-140 Y-70 Z0.15 F1200 ; slow wipe
G1 X-135 Y-65 Z0.5 F1200 ; lift
G92 A0 ; zero extruder
M73 P1 ;@body (notify GPX body has started)
; **** end of start.gcode ****
G1 E-1.0000 F1200
G1 Z0.180 F1200
; layer 1, Z = 0.18
M135 T0
; tool H0.200 W0.400
; skirt
G1 X5.150 Y39.525 F9000
G1 E1.0000 F360
G1 X-5.150 Y39.525 E0.3083 F2400
G1 X-5.160 Y39.525 E0.0003
G1 X-5.301 Y39.520 E0.0042
G1 X-5.311 Y39.520 E0.0003
G1 X-10.080 Y39.207 E0.1431
G1 X-10.099 Y39.205 E0.0006
G1 X-10.379 Y39.168 E0.0084
G1 X-10.398 Y39.165 E0.0006
G1 X-15.155 Y38.219 E0.1452
G1 X-15.174 Y38.215 E0.0006
G1 X-15.446 Y38.142 E0.0084
G1 X-15.465 Y38.136 E0.0006
G1 X-20.057 Y36.577 E0.1452
G1 X-20.076 Y36.570 E0.0006
G1 X-20.336 Y36.462 E0.0084
G1 X-20.353 Y36.454 E0.0006
G1 X-24.703 Y34.309 E0.1452
G1 X-24.721 Y34.300 E0.0006
G1 X-24.964 Y34.159 E0.0084
G1 X-24.981 Y34.149 E0.0006
G1 X-29.014 Y31.454 E0.1452
G1 X-29.030 Y31.443 E0.0006
G1 X-29.253 Y31.272 E0.0084
G1 X-29.268 Y31.259 E0.0006
G1 X-32.915 Y28.061 E0.1452
G1 X-32.929 Y28.048 E0.0006
G1 X-33.128 Y27.849 E0.0084
G1 X-33.141 Y27.835 E0.0006
G1 X-36.339 Y24.188 E0.1452
G1 X-36.352 Y24.173 E0.0006
G1 X-36.523 Y23.950 E0.0084
G1 X-36.534 Y23.934 E0.0006
G1 X-39.229 Y19.901 E0.1452
G1 X-39.239 Y19.884 E0.0006
G1 X-39.380 Y19.641 E0.0084
G1 X-39.389 Y19.623 E0.0006
G1 X-41.534 Y15.274 E0.1452
G1 X-41.542 Y15.256 E0.0006
G1 X-41.650 Y14.995 E0.0084
G1 X-41.657 Y14.977 E0.0006
G1 X-43.216 Y10.385 E0.1452
G1 X-43.222 Y10.366 E0.0006
G1 X-43.295 Y10.094 E0.0084
G1 X-43.299 Y10.075 E0.0006
G1 X-44.245 Y5.318 E0.1452
G1 X-44.248 Y5.299 E0.0006
G1 X-44.285 Y5.019 E0.0084
G1 X-44.287 Y5.000 E0.0006
G1 X-44.604 Y0.160 E0.1452
G1 X-44.605 Y0.141 E0.0006
G1 X-44.605 Y-0.141 E0.0084
G1 X-44.604 Y-0.160 E0.0006
G1 X-44.287 Y-5.000 E0.1452
G1 X-44.285 Y-5.019 E0.0006
G1 X-44.248 Y-5.299 E0.0084
G1 X-44.245 Y-5.318 E0.0006
G1 X-43.299 Y-10.075 E0.1452
G1 X-43.295 Y-10.094 E0.0006
G1 X-43.222 Y-10.366 E0.0084
G1 X-43.216 Y-10.385 E0.0006
G1 X-41.657 Y-14.977 E0.1452
G1 X-41.650 Y-14.995 E0.0006
G1 X-41.542 Y-15.256 E0.0084
G1 X-41.534 Y-15.274 E0.0006
G1 X-39.389 Y-19.623 E0.1452
G1 X-39.380 Y-19.641 E0.0006
G1 X-39.239 Y-19.884 E0.0084
G1 X-39.229 Y-19.901 E0.0006
G1 X-36.534 Y-23.934 E0.1452
G1 X-36.523 Y-23.950 E0.0006
G1 X-36.352 Y-24.173 E0.0084
G1 X-36.339 Y-24.188 E0.0006
G1 X-33.141 Y-27.835 E0.1452
G1 X-33.128 Y-27.849 E0.0006
G1 X-32.929 Y-28.048 E0.0084
G1 X-32.915 Y-28.061 E0.0006
G1 X-29.268 Y-31.259 E0.1452
G1 X-29.253 Y-31.272 E0.0006
G1 X-29.030 Y-31.443 E0.0084
G1 X-29.014 Y-31.454 E0.0006
G1 X-24.981 Y-34.149 E0.1452
G1 X-24.964 Y-34.159 E0.0006
G1 X-24.721 Y-34.300 E0.0084
G1 X-24.703 Y-34.309 E0.0006
G1 X-20.353 Y-36.454 E0.1452
G1 X-20.336 Y-36.462 E0.0006
G1 X-20.076 Y-36.570 E0.0084
G1 X-20.057 Y-36.577 E0.0006
G1 X-15.465 Y-38.136 E0.1452
G1 X-15.446 Y-38.142 E0.0006
G1 X-15.174 Y-38.215 E0.0084
G1 X-15.155 Y-38.219 E0.0006
G1 X-10.398 Y-39.165 E0.1452
G1 X-10.379 Y-39.168 E0.0006
G1 X-10.099 Y-39.205 E0.0084
G1 X-10.080 Y-39.207 E0.0006
G1 X-5.311 Y-39.520 E0.1431
G1 X-5.301 Y-39.520 E0.0003
G1 X-5.160 Y-39.525 E0.0042
G1 X-5.150 Y-39.525 E0.0003
G1 X5.150 Y-39.525 E0.3083
G1 X5.160 Y-39.525 E0.0003
G1 X5.301 Y-39.520 E0.0042
G1 X5.311 Y-39.520 E0.0003
G1 X10.080 Y-39.207 E0.1431
G1 X10.099 Y-39.205 E0.0006
G1 X10.379 Y-39.168 E0.0084
G1 X10.398 Y-39.165 E0.0006
G1 X15.155 Y-38.219 E0.1452
G1 X15.174 Y-38.215 E0.0006
G1 X15.446 Y-38.142 E0.0084
G1 X15.465 Y-38.136 E0.0006
G1 X20.057 Y-36.577 E0.1452
G1 X20.076 Y-36.570 E0.0006
G1 X20.336 Y-36.462 E0.0084
G1 X20.353 Y-36.454 E0.0006
G1 X24.703 Y-34.309 E0.1452
G1 X24.721 Y-34.300 E0.0006
G1 X24.964 Y-34.159 E0.0084
G1 X24.981 Y-34.149 E0.0006
G1 X29.014 Y-31.454 E0.1452
G1 X29.030 Y-31.443 E0.0006
G1 X29.253 Y-31.272 E0.0084
G1 X29.268 Y-31.259 E0.0006
G1 X32.915 Y-28.061 E0.1452
G1 X32.929 Y-28.048 E0.0006
G1 X33.128 Y-27.849 E0.0084
G1 X33.141 Y-27.835 E0.0006
G1 X36.339 Y-24.188 E0.1452
G1 X36.352 Y-24.173 E0.0006
G1 X36.523 Y-23.950 E0.0084
G1 X36.534 Y-23.934 E0.0006
G1 X39.229 Y-19.901 E0.1452
G1 X39.239 Y-19.884 E0.0006
G1 X39.380 Y-19.641 E0.0084
G1 X39.389 Y-19.623 E0.0006
G1 X41.534 Y-15.274 E0.1452
G1 X41.542 Y-15.256 E0.0006
G1 X41.650 Y-14.995 E0.0084
G1 X41.657 Y-14.977 E0.0006
G1 X43.216 Y-10.385 E0.1452
G1 X43.222 Y-10.366 E0.0006
G1 X43.295 Y-10.094 E0.0084
G1 X43.299 Y-10.075 E0.0006
G1 X44.245 Y-5.318 E0.1452
G1 X44.248 Y-5.299 E0.0006
G1 X44.285 Y-5.019 E0.0084
G1 X44.287 Y-5.000 E0.0006
G1 X44.604 Y-0.160 E0.1452
G1 X44.605 Y-0.141 E0.0006
G1 X44.605 Y0.141 E0.0084
G1 X44.604 Y0.160 E0.0006
G1 X44.287 Y5.000 E0.1452
G1 X44.285 Y5.019 E0.0006
G1 X44.248 Y5.299 E0.0084
G1 X44.245 Y5.318 E0.0006
G1 X43.299 Y10.075 E0.1452
G1 X43.295 Y10.094 E0.0006
G1 X43.222 Y10.366 E0.0084
G1 X43.216 Y10.385 E0.0006
G1 X41.657 Y14.977 E0.1452
G1 X41.650 Y14.995 E0.0006
G1 X41.542 Y15.256 E0.0084
G1 X41.534 Y15.274 E0.0006
G1 X39.389 Y19.623 E0.1452
G1 X39.380 Y19.641 E0.0006
G1 X39.239 Y19.884 E0.0084
G1 X39.229 Y19.901 E0.0006
G1 X36.534 Y23.934 E0.1452
G1 X36.523 Y23.950 E0.0006
G1 X36.352 Y24.173 E0.0084
G1 X36.339 Y24.188 E0.0006
G1 X33.141 Y27.835 E0.1452
G1 X33.128 Y27.849 E0.0006
G1 X32.929 Y28.048 E0.0084
G1 X32.915 Y28.061 E0.0006
G1 X29.268 Y31.259 E0.1452
G1 X29.253 Y31.272 E0.0006
G1 X29.030 Y31.443 E0.0084
G1 X29.014 Y31.454 E0.0006
G1 X24.981 Y34.149 E0.1452
G1 X24.964 Y34.159 E0.0006
G1 X24.721 Y34.300 E0.0084
G1 X24.703 Y34.309 E0.0006
G1 X20.353 Y36.454 E0.1452
G1 X20.336 Y36.462 E0.0006
G1 X20.076 Y36.570 E0.0084
G1 X20.057 Y36.577 E0.0006
G1 X15.465 Y38.136 E0.1452
G1 X15.446 Y38.142 E0.0006
G1 X15.174 Y38.215 E0.0084
G1 X15.155 Y38.219 E0.0006
G1 X10.398 Y39.165 E0.1452
G1 X10.379 Y39.168 E0.0006
G1 X10.099 Y39.205 E0.0084
G1 X10.080 Y39.207 E0.0006
G1 X5.311 Y39.520 E0.1431
G1 X5.301 Y39.520 E0.0003
G1 X5.160 Y39.525 E0.0042
G1 X5.150 Y39.525 E0.0003
G1 X5.147 Y39.125 F9000
G1 X-5.147 Y39.125 E0.3081 F2400
G1 X-5.150 Y39.125 E0.0001
G1 X-5.284 Y39.121 E0.0040
G1 X-5.288 Y39.120 E0.0001
G1 X-10.047 Y38.808 E0.1428
G1 X-10.054 Y38.808 E0.0002
G1 X-10.320 Y38.773 E0.0080
G1 X-10.326 Y38.772 E0.0002
G1 X-15.070 Y37.828 E0.1448
G1 X-15.077 Y37.827 E0.0002
G1 X-15.336 Y37.757 E0.0080
G1 X-15.342 Y37.755 E0.0002
G1 X-19.922 Y36.200 E0.1448
G1 X-19.928 Y36.198 E0.0002
G1 X-20.176 Y36.095 E0.0080
G1 X-20.182 Y36.093 E0.0002
G1 X-24.520 Y33.953 E0.1448
G1 X-24.526 Y33.950 E0.0002
G1 X-24.759 Y33.816 E0.0080
G1 X-24.764 Y33.813 E0.0002
G1 X-28.786 Y31.125 E0.1448
G1 X-28.791 Y31.122 E0.0002
G1 X-29.004 Y30.958 E0.0080
G1 X-29.009 Y30.954 E0.0002
G1 X-32.646 Y27.765 E0.1448
G1 X-32.651 Y27.760 E0.0002
G1 X-32.840 Y27.571 E0.0080
G1 X-32.845 Y27.566 E0.0002
G1 X-36.034 Y23.929 E0.1448
G1 X-36.038 Y23.924 E0.0002
G1 X-36.202 Y23.711 E0.0080
G1 X-36.205 Y23.706 E0.0002
G1 X-38.893 Y19.684 E0.1448
G1 X-38.896 Y19.679 E0.0002
G1 X-39.030 Y19.446 E0.0080
G1 X-39.033 Y19.440 E0.0002
G1 X-41.173 Y15.102 E0.1448
G1 X-41.175 Y15.096 E0.0002
G1 X-41.278 Y14.848 E0.0080
G1 X-41.280 Y14.842 E0.0002
G1 X-42.835 Y10.262 E0.1448
G1 X-42.837 Y10.256 E0.0002
G1 X-42.907 Y9.997 E0.0080
G1 X-42.908 Y9.990 E0.0002
G1 X-43.852 Y5.246 E0.1448
G1 X-43.853 Y5.240 E0.0002
G1 X-43.888 Y4.974 E0.0080
G1 X-43.888 Y4.967 E0.0002
G1 X-44.205 Y0.141 E0.1448
G1 X-44.205 Y0.134 E0.0002
G1 X-44.205 Y-0.134 E0.0080
G1 X-44.205 Y-0.141 E0.0002
G1 X-43.888 Y-4.967 E0.1448
G1 X-43.888 Y-4.974 E0.0002
G1 X-43.853 Y-5.240 E0.0080
G1 X-43.852 Y-5.246 E0.0002
G1 X-42.908 Y-9.990 E0.1448
G1 X-42.907 Y-9.997 E0.0002
G1 X-42.837 Y-10.256 E0.0080
G1 X-42.835 Y-10.262 E0.0002
G1 X-41.280 Y-14.842 E0.1448
G1 X-41.278 Y-14.848 E0.0002
G1 X-41.175 Y-15.096 E0.0080
G1 X-41.173 Y-15.102 E0.0002
G1 X-39.033 Y-19.440 E0.1448
G1 X-39.030 Y-19.446 E0.0002
G1 X-38.896 Y-19.679 E0.0080
G1 X-38.893 Y-19.684 E0.0002
G1 X-36.205 Y-23.706 E0.1448
G1 X-36.202 Y-23.711 E0.0002
G1 X-36.038 Y-23.924 E0.0080
G1 X-36.034 Y-23.929 E0.0002
G1 X-32.845 Y-27.566 E0.1448
G1 X-32.840 Y-27.571 E0.0002
G1 X-32.651 Y-27.760 E0.0080
G1 X-32.646 Y-27.765 E0.0002
G1 X-29.009 Y-30.954 E0.1448
G1 X-29.004 Y-30.958 E0.0002
G1 X-28.791 Y-31.122 E0.0080
G1 X-28.786 Y-31.125 E0.0002
G1 X-24.764 Y-33.813 E0.1448
G1 X-24.759 Y-33.816 E0.0002
G1 X-24.526 Y-33.950 E0.0080
G1 X-24.520 Y-33.953 E0.0002
G1 X-20.182 Y-36.093 E0.1448
G1 X-20.176 Y-36.095 E0.0002
G1 X-19.928 Y-36.198 E0.0080
G1 X-19.922 Y-36.200 E0.0002
G1 X-15.342 Y-37.755 E0.1448
G1 X-15.336 Y-37.757 E0.0002
G1 X-15.077 Y-37.827 E0.0080
G1 X-15.070 Y-37.828 E0.0002
G1 X-10.326 Y-38.772 E0.1448
G1 X-10.320 Y-38.773 E0.0002
G1 X-10.054 Y-38.808 E0.0080
G1 X-10.047 Y-38.808 E0.0002
G1 X-5.288 Y-39.120 E0.1428
G1 X-5.284 Y-39.121 E0.0001
G1 X-5.150 Y-39.125 E0.0040
G1 X-5.147 Y-39.125 E0.0001
G1 X5.147 Y-39.125 E0.3081
G1 X5.150 Y-39.125 E0.0001
G1 X5.284 Y-39.121 E0.0040
G1 X5.288 Y-39.120 E0.0001
G1 X10.047 Y-38.808 E0.1428
G1 X10.054 Y-38.808 E0.0002
G1 X10.320 Y-38.773 E0.0080
G1 X10.326 Y-38.772 E0.0002
G1 X15.070 Y-37.828 E0.1448
